X:1
T:Caro mea vere est cibus - Gabrieli
T:James Gibb editions
T:#
%%score [ 1 2 3 4 ]
L:1/8
Q:1/4=200
M:none
K:C
V:1 treble nm="Soprano" snm="S"
V:2 treble nm="Alto" snm="A"
V:3 treble-8 nm="Tenor" snm="T"
V:4 bass nm="Bass" snm="B"
V:1
"^Caro mea vere est cibus""^Andrea Gabrieli\n(c. 1510-1586)" z16 | A16 | G8 F8 | E16 | z8 z4 E4- | %5
w: |Ca-|ro me-|a|ve\-|
 E4 G4 G4 (G4- | G2 FE F4) A8 | z8 z4 A4- | A4 c4 c4 (c4- | c2 BA B4) A4 c4- | c4 c4 A4 (A4- | %11
w: * re est ci\-|* * * * bus,|ve\-|* re est ci\-|* * * * bus, ve\-|* re est ci\-|
 A2 ^G^F G4) A8 | z4 A4 A4 A4 | G12 F4 | E8 F4 E4 | G8 A8 | z16 | z4 A4 A4 A4 | G12 F4 | E8 F4 E4 | %20
w: * * * * bus:|et san- guis|me- us|ve- re est|po- tus,||et san- guis|me- us|ve- re est|
 G16 | A8 z8 | z16 | z4 d4 d4 d4 | c12 B4 | A4 c4 d4 (c4- | c4 B2 A2 B8) | A8 z8 | A12 A4 | %29
w: po-|tus,||et san- guis|me- us|ve- re est po\-||tus.|Qui man-|
 F4 G4 A4 A4 | F8 E8 | z16 | z4 A4 c4 B4 | e8 c4 (d4- | d2 c2 c8) B4 | c16 | z16 | z4 A8 B4 | %38
w: du- cat me- am|car- nem,||et bib- it|me- um san\-|* * * gui-|nem||in me|
 c8 A8 | z8 G8 | c12 B4 | B4 (A8 ^G4) | A16 | z8 z4 D4- | D4 E4 F8 | E4 E4 G8- | G4 F4 F4 (E4- | %47
w: ma- net,|et|e- go|in e\- *|o,|in|* me ma-|net, et e\-|* go in e\-|
 E4 D4) E8 | z16 | z4 A8 B4 | c8 B4 G4 | c12 B4 | B4[Q:1/4=198] (A8 ^G4)[Q:1/4=194] | %53
w: * * o,||in me|ma- net et|e- go|in e\- *|
[Q:1/4=189] A16-[Q:1/4=187][Q:1/4=183] |[Q:1/4=179] A16[Q:1/4=176][Q:1/4=172] |[Q:1/4=170] A16 |] %56
w: o.|||
V:2
 E16 | D8 F8 | E8 z4 A,4- | A,4 C4 C4 (C4- | C2 B,A, B,4) A,8 | (G,6 A,2 B,4) C4 | D8 D4 C4- | %7
w: Ca-|ro me-|a ve\-|* re est ci\-|* * * * bus,|ca\- * * ro|me- a ve\-|
 C4 B,4 A,8 | F8 C8 | E8 F4 F4 | E8 E8 | z4 E4 E4 E4 | D12 C4 | B,4 C4 E4 (D4- | D4 C2 B,2 C8) | %15
w: * re est|ci- bus,|ve- re est|ci- bus:|et san- guis|me- us|ve- re est po\-||
 B,8 z8 | z16 | z4 C4 (A,2 B,2 C2 D2 | E8) A,8 | C8 C4 C4 | (B,6 A,B, C4) B,4 | D8 E8 | %22
w: tus,||est po\- * * *|* tus,|et san- guis|me\- * * * us|ve- re,|
 z4 E4 E4 E4 | D12 B,4 | (C2 D2 E2 F2 G2 E2 G4) | F4 E4 (F6 G2 | A2 F2 A8 ^G4) | A4 F8 F4 | %28
w: et san- guis|me- us|ve\- * * * * * *|re est po\- *||tus. Qui man-|
 D4 E4 F4 D4 | (A,6 B,2 C8) | A,8 z8 | z4 D4 F4 E4 | A4 A4 G6 G2 | E4 G4 F4 F4 | E4 E4 G6 G2 | %35
w: du- cat me- am|car\- * *|nem,|et bi- bit|me- um san- gui-|nem, et bi- bit|me- um san- gui-|
 E16- | E8 z4 D4 | E8 F4 D4 | z4 E8 F4 | G8 (E6 F2 | G4) F4 D8 | E4 E4 E8- | E8 C8 | z16 | %44
w: nem,|* in|me ma- net,|in me|ma- net, *|* et e-|go in e\-|* o,||
 z4 A,8 B,4 | C8 B,4 B,4 | C12 C4- | C4 B,4 (G,6 A,B, | C8) B,4 C4 | D4 E8 D4 | z4 E4 G8 | %51
w: in me|ma- net, et|e- go|* in e\- * *|* o, in|me ma- net,|et e-|
 E4 E4 E8 | E16 | z4 C4 F8 | F4 E4 D8 | ^C16 |] %56
w: go in e-|o,|et e-|go in e-|o.|
V:3
 z16 | z16 | z16 | A16 | G8 c8 | B8 z8 | A16 | G8 F8- | F16 | E8 z4 A4- | A4 c4 c4 (c4- | %11
w: |||Ca-|ro me-|a,|ca-|ro me\-||a ve\-|* re est ci\-|
 c2 BA B4) A8 | z16 | z16 | z16 | z4 d4 d4 d4 | c12 B4 | A8 c4 A4 | c8 d8 | z4 A4 A4 A4 | G16 | %21
w: * * * * bus:||||et san- guis|me- us|ve- re est|po- tus,|et san- guis|me-|
 F4 A4 A4 A4 | G12 E4 | G8 G4 G4 | A8 E8 | z16 | z16 | z4 A8 A4 | F4 G4 A4 A4 | F8 E8 | z4 c8 c4 | %31
w: us, et san- guis|me- us|ve- re est|po- tus.|||Qui man-|du- cat me- am|car- nem,|qui man-|
 A4 B4 c4 c4 | d8 e4 e4 | c4 B4 A8- | A4 c4 d6 d2 | c4 G4 A4 G4 | c8 A4 (B4- | B2 A2 A8) ^G4 | %38
w: du- cat me- am|car- nem, et|bi- bit me\-|* um san- gui-|nem, et bi- bit|me- um san\-|* * * gui-|
 A4 c8 d4 | (e2 d2 c2 B2 c8- | c4) A4 z4 G4- | G4 A4 B8 | A8 z4 A4 | c8 B4 B4 | (A6 G2 F2 E2 D4) | %45
w: nem, in me|ma\- * * * *|* net, in|* me ma-|net, et|e- go in|e\- * * * *|
 A8 z4 E4 | A8 A4 A4 | F8 E4 E4- | E4 F4 G8 | F4 E4 F8 | E4 A4 G4 E4 | E4 A8 G4- | G4 c4 B8 | %53
w: o, et|e- go in|e- o, in|* me ma-|net, et e-|go in e- o,|et e- go|* in e-|
 A12 D4 | (A6 G2 F8) | E16 |] %56
w: o, in|e\- * *|o.|
V:4
 z16 | z16 | z16 | z16 | z16 | E,16 | D,8 F,8 | E,8 z4 D,4- | D,4 A,4 A,4 (A,4- | %9
w: |||||Ca-|ro me-|a ve\-|* re est ci\-|
 A,2 G,F, G,4) F,8 | A,8 A,4 A,,4 | E,8 A,,8 | z16 | z16 | z4 A,4 A,4 A,4 | G,12 F,4 | %16
w: * * * * bus,|ve- re est|ci- bus:|||et san- guis|me- us|
 E,4 F,4 A,4 (G,4- | G,4 F,2 E,2 F,8) | E,4 E,4 (D,2 E,2 F,2 G,2 | A,8 A,,8 | z4 E,4 E,4 E,4 | %21
w: ve- re est po\-||tus, est po\- * * *|* tus,|et san- guis|
 D,12 C,4 | B,,4 C,4 E,4 (C,4- | C,4 B,,2 A,,2 B,,8) | A,,8 z8 | z8 z4 F,4- | F,4 F,4 D,4 E,4 | %27
w: me- us|ve- re est po\-||tus.|Qui|* man- du- cat|
 F,4 F,4 D,8- | D,16 | D,8 A,,8 | z4 A,8 A,4 | F,4 G,4 A,4 A,4 | F,8 E,8 | z4 E,4 F,4 D,4 | %34
w: me- am car\-||* nem,|qui man-|du- cat me- am|car- nem,|et bi- bit|
 A,4 A,4 G,6 G,2 | C,8 z4 C,4 | A,,4 C,4 D,8 | C,8 D,4 B,,4 | A,,8 z8 | z8 z4 E,4- | E,4 F,4 G,8 | %41
w: me- um san- gui-|nem, et|bi- bit me-|um san- gui-|nem,|in|* me ma-|
 E,16 | z4 A,,4 F,8- | F,4 E,4 E,4 D,4- | D,4 ^C,4) D,8 | z16 | z8 z4 A,,4- | A,,4 B,,4 C,8 | %48
w: net,|et e\-|* go in e\-|* * o,||in|* me ma-|
 A,,4 A,,4 E,8 | D,4 ^C,4 D,8 | A,,8 z8 | A,,8 E,8 | E,4 A,,4 E,8 | A,,4 A,,4 D,8 | D,4 ^C,4 D,8 | %55
w: net, et e-|go in e-|o,|et e-|go in e-|o, et e-|go in e-|
 A,,16 |] %56
w: o.|

